X:1
T:Cosmopolitan -- Hornpipe
R:hornpipe
B:Cole's 1000 Fiddle Tunes
M:C|
L:1/8
K:A
(ucB)|A>cE>G A>ce>c|d>fB>d g>ab>g|a>ec>a f>dB>A|G>AB>c d>EG>B|
A>cE>G A>ce>c|d>fB>d g>ab>g|((3agf) ((3edc) B>EG>B|A2{g}a2A2:|
|:(ucd)|"0"e>fe>c A>ce>=g|f>fd>f B>df>a|\
((3^gag) ((3efe) ((3BcB) ((3G"4"AG)|((3EGB) ((3egb) "0"e'2(u."2"c>.d)|
e>ec>A A>ce=>g|f>fd>f B>df>a|^g>fe>d c>BA>G|A2{g}a2A2:|
